X:76
T: Schlacht bei der Conzerbrck, S.44
N: L0036
O: Luxemburg
S: Die Luxemburger Volkslieder lterer Zeit, Luxemburg 1904 posth.]
R: Kriegslied, Klagelied, geschichtliches Lied]
M: 4/4
L: 1/8
K: Bb
c | d2G2F2B2 | d2c2B2z
c | d2G2F2B2 | d2c2B2z
A | BcBAG2FF | BcBBG2F
F | c2c2c3d | edecd2z
c | d2G2F2B2 | d2c2B2z

